X: 29
T:Laird o' Drumblair, the
M:4/4
L:1/8
Q:120
R:Strathspey
K:A
A2 c>A [AE]A|a2 g>a f>ae>c|(3def (3efg (3aed (3cBA|(3Bcd (3cBA (3GFE
 (3dcB|!
A2 c>A [AE]A|a2 g>a f>ae>c|(3def (3efg (3aed (3cBA|(3GFE (3dcB A2 A
||!
g|a2 e>a c>a A>a|c/B/A e>g a>A cb d>b B>b|d/c/B f>^a b>B da c>a A>a|c/B/A e>g a>Ac>A|(3def (3efg (3aed (3cBA|(3GFE (3dcB A2 A
|| 
% 

